X:02
T:There Was a Jolly Miller. TJD.02
M:6/4
L:1/4
Q:1/4=160
S:T.J.Dixon MS1, Lincolnshire,1798
R:Air
A:Lincolnshire, Holton le Moor
Z:vmp.R.Greig2010
K:D
F|B>cB^A>GF|d>edc2e|d>cBcB^A|BFDB2F|!
B2B^A2F|d2dc2e|d2B(^A^G)A|B3-B2F|B2B^A2F|!
d2dc2e|d2B^A^GA|B3-B2\|:d/e/|f2ff2d|e2ee2c|!
d2Be2d|c3Hc2F|B2B^A>GF|d2dc2e|(d>c)B^A^GA|B3-B2:|

